X:1
T:Wounded for Our Transgressions
T:Wounded for Our Transgressions
T:Lelia Naylor Morris
T:Lelia Naylor Morris, 1911
T:Public Domain Courtesy of the Cyber Hymnal™
T:Public Domain Courtesy of the Cyber Hymnal™
T:Public Domain Courtesy of the Cyber Hymnal™
C:Lelia Naylor Morris
Z:Public Domain
Z:Courtesy of the Cyber Hymnal™
%%score ( 1 2 ) ( 3 4 )
L:1/8
Q:1/4=125
M:6/4
K:Eb
V:1 treble 
V:2 treble 
V:3 bass 
V:4 bass 
V:1
 [EGBe]6 E4 [EG]2 | [EB]2 [Ec]2 [EB]2 [B,G]2 [A,B,F]2 [A,B,]2 | %2
w: 1.~Sing we the|prais- es of Je- sus, The|
w: 2.~To Beth- le-|hem of Ju- de- a A|
w: 3.~Glo- ry to|God in the high- est, Our|
 [EGe]2 [EGd]2 [EGc]2 [EB]2 [E=A]2 [EB]2 | (z2 D6) x8 | [FABd]6 F4 G2 | %5
w: won- der- ful Sav- ior of||men; Sing how|
w: Babe in a man- ger He||came; Lived He|
w: glad hearts ex- ult- ing- ly||sing, Prais- es|
 [FA]2 [GB]2 [Ac]2 A2 G2 F2 | [df]2 [ce]2 [Bd]2 [Ac]2 [Bd]3 [Ac] | ([^Fc]6 [GB]6) | %8
w: He died for our ran- som,|Yet liv- eth in glo- ry|a- *|
w: a life of the low- ly,|En- dur- ing the cross and|its *|
w: for- ev- er and ev- er|To Je- sus our Sav- ior|and *|
 (z2 [B,G]2 [B,E]2) (z2 [=B,F]2) [B,FG]2 | [CEG]2 [Ec]2 [Fd]2 [Ge]2 [Fd]2 [Ec]2 | %10
w: * * * gain;|* Tell how His grace is|
w: * * * shame;|* Tempt- ed in all points|
w: * * * king;|* No more de- spised and|
 G2 [=B,DG]2 [CEG]2 [DFG]2 [CEG]2 [B,DG]2 | (z2 [ce]2 [df]2 [eg]2 [df]2 [ce]2) | %12
w: suf- fi- cient A world of||
w: as we are, And yet with-||
w: re- ject- ed, For sin- ners||
 (z2 [=A,E]2 [A,E]2) (z2 [A,E]2) [A,EF]2 | F2 [F=A]2 [FAc]2 [GAe]2 [FAd]2 [EAc]2 | %14
w: * * * lost|* sin- ners to save; Tell|
w: * * * out|* sin was He found; God-|
w: * * * to|* suf- fer and die, Wor-|
 [Fdf]2 [Fce]2 [FBd]2 [E=Ac]2 [EG]2 [EA]2 | B6- B4 ([DF]2 [DAB]2) || %16
w: how who- ev- er be- liev-|eth * A *|
w: man, our frail- ties He knows,|and * His *|
w: shipped, en- throned and ex- alt-|ed, * He *|
"^Refrain" [EGB]2 [EGc]2 [EGB]2 ([B,G]2 [A,B,F]2) [G,B,E]2 | %17
w: * per- fect sal- * va-|
w: * grace doth to * sin-|
w: * liv- eth for- * ev-|
 (z2 [B,E]2 [B,E]2) (z2 [=B,F]2 [B,F]2) | E2 [G,CE]2 [G,CE]2 E2 ([^F,=A,E]2 z) E | %19
w: |* tion shall have. * *|
w: |* ners a- bound. Wound- ed|
w: |* er on high. * *|
 z2 [G,B,E]2 [G,B,E]2 z2 [A,B,D]2 [DFAB]2 | [EGB]2 [EGc]2 [EGB]2 [B,G]2 [A,B,F]2 [G,B,E]2 | %21
w: ||
w: |* for our trans- gres- sions,|
w: ||
 (z2 [B,E]2 [B,E]2) (z2 [=B,F]2 [B,F]2) | [=A,EG]2 [A,EF]2 [A,E]2 [A,EG]2 [A,EF]2 [A,E]2 | %23
w: ||
w: |* Tread- ing the wine- press|
w: ||
 (z2 [db]2 [ec']2 [fd']2 [ec']2 [db]2) | [Bd]2 [Ac]2 [GB]2 [FA]2 [GB]3 [FA] | [EG]6 [GB]6 | %26
w: |||
w: |a- lone; Brought as a lamb|to the|
w: |||
 [Ac]2 [A=B]2 [Ac]2 [ce]2 [_Bd]2 [Ac]2 | [GB]12 | .[Ge]2 .[Ge]2 .[Ge]2 .[^Fe]2 .[Fd]2 .[Fc]2 | %29
w: |||
w: slaugh- ter, Je- sus the In-|fi-|nite One. Shall we not praise|
w: |||
 .[GB]2 .[Ge]2 .[Ge]2 !fermata![^Fe]4 [=Ae][Ae] | [Bef]2 [Be]2 [Ac]2 (B2 g2) [Adf]2 | e6- [Ge]6 |] %32
w: |||
w: Him for- ev- er, Wor- ship|His Name and a- * dore?|He who|
w: |||
V:2
 x6 E4 x2 | x12 | x12 | (c6 FG A2 D6) | x6 F4 G2 | x6 A2 G2 F2 | x12 | x12 | G6 G4 x2 | x12 | %10
 G2 x10 | (G6 G6) | G6 F4 x2 | F2 x10 | x12 | D2 F2 E2 D2 x6 || x12 | G6 G6 | %18
 E2 x2 E2 [^F,=A,]2 x4 | G6 F4 x2 | x12 | G6 G6 | x12 | (B6- B6) | x12 | x12 | x12 | x12 | x12 | %29
 x12 | x6 [GB]4 x2 | G2 G2 A2 x6 |] %32
V:3
 (z2 [G,B,]2 [G,B,]2) (z2 [G,C]2) [G,C]2 | [G,,G,]2 [A,,A,]2 [G,,G,]2 [E,,E,]6 | %2
w: * * * ~|~ ~ ~ ~|
 z2 [G,B,]2 [G,B,]2 [G,,G,]2 [^F,,^F,]2 [G,,G,]2 | (z2 [A,B,D]2 [A,B,D]2 z2 [A,B,]2 [A,B,D]2) x4 | %4
w: ~ ~ ~ ~ ~||
 z2 [A,B,D]2 [A,B,D]2 (z2 [A,B,D]2) [A,B,D]2 | z2 [A,B,D]2 [A,B,D]2 z2 [A,B,D]2 [A,B,D]2 | %6
w: * * * ~|~ ~ ~ ~|
 z2 [A,B,D]2 [A,B,D]2 z2 [A,B,D]2 [A,B,D]2 | z2 [^F,=A,E]2 [F,A,E]2 z2 [G,B,E]2 [G,B,E]2 | %8
w: ~ ~ ~ ~||
 [E,,E,]6 [E,,D,]6 | z2 [G,C]2 [G,C]2 z2 [G,C]2 [G,C]2 | z2 G,2 G,2 z2 G,2 G,2 | %11
w: * ~|~ ~ ~ ~|~ ~ ~ ~|
 z2 [G,C]2 [G,C]2 z2 [G,C]2 [G,C]2 | [C,,C,]6 [F,,F,]6 | z2 [F,=A,E]2 [F,A,E]2 z2 [F,A,]2 [F,A,]2 | %14
w: |* ~|~ ~ ~ ~|
 z2 [F,B,D]2 [F,B,D]2 z2 [F,B,]2 [F,C]2 | [B,,,B,,]2 [D,D]2 [C,C]2 [B,,B,]2 [A,,A,]2 [F,,F,]2 x2 || %16
w: ~ ~ ~ ~||
 z2 [G,B,]2 [G,B,]2 [B,,,B,,]6 | [E,,E,]6 [D,,D,]6 | [C,,C,]6 [_C,,_C,]6 | [B,,,B,,]6 [B,,,B,,]6 | %20
w: ~ ~ ~|~ ~|~ ~|~ ~|
 z2 [G,B,]2 [G,B,]2 [B,,,B,,]6 | [E,,E,]6 [D,,D,]6 | [C,,C,]6 [F,,F,]6 | %23
w: ~ ~ ~|* ~|~ ~|
 z2 [F,B,D]2 [F,B,D]2 z2 [F,B,D]2 [F,B,D]2 | z2 [A,B,D]2 [A,B,D]2 z2 [A,B,D]2 [A,B,D]2 | %25
w: ~ ~ ~ ~|~ ~ ~ ~|
 (z2 [G,B,]2 [G,B,]2) (z2 [G,B,E]2 [G,B,E]2) | z2 [A,=B,D]2 [A,CE]2 z2 [A,CE]2 [A,CE]2 | %27
w: |~ ~ ~ ~|
 z2 [G,B,E]2 [G,B,E]2 z2 [G,B,E]2 [G,B,E]2 | [E,B,]2 [E,B,]2 [E,B,]2 [=A,C]2 [A,D]2 [A,E]2 | %29
w: ~ ~ ~ ~|* ~ ~ ~ ~ ~|
 [B,E]2 [B,E]2 [B,E]2 !fermata![_CE]4 [CE][CE] | [B,E]2 [G,E]2 [A,E]2 [B,E]4 [B,,B,]2 | %31
w: ~ ~ ~ ~ ~ ~|~ ~ ~ ~ ~|
 B,2 C2 _C2 [E,B,]6 |] %32
w: ~ ~ ~ ~|
V:4
 [G,,E,]4 [C,,C,]4 x4 | x12 | [E,,E,]4 x8 | [F,,F,]4 [B,,,B,,]4 x8 | [F,,F,]4 [B,,,B,,]4 x4 | %5
 [F,,F,]4 [B,,,B,,]4 x4 | [B,,,B,,]4 [B,,,B,,]4 x4 | [E,,E,]4 [E,,E,]4 x4 | x12 | %9
 [C,,C,]4 [C,,C,]4 x4 | G,,4 G,,4 x4 | [C,,C,]4 [C,,C,]4 x4 | x12 | [C,,C,]4 [F,,F,]4 x4 | %14
 [F,,F,]4 [F,,F,]4 x4 | x14 || [E,,E,]6 x6 | x12 | x12 | x12 | [E,,E,]6 x6 | x12 | x12 | %23
 [B,,,B,,]6 [B,,,B,,]6 | [B,,,B,,]6 [B,,,B,,]6 | [E,,E,]6 [E,,E,]6 | [C,,A,,]6 [C,,A,,]6 | %27
 [E,,E,]6 [E,,E,]6 | x12 | x12 | x12 | E,6- x6 |] %32

